X:001
T:Up the Walls of the World
C:Martin Reese and Paul Thomson
S:Learned at a Whittlesea Straw Bear session
Z:played at a steady pace, but it also works well at speed.
S:Si Garbutt, tradtunes 2009-3-27
M:4/4
L:1/8
%Q:1/4=200
K:G
f|gfed eBBB|cBBB EGBe|gfed eBcB|AGFG E3 f|
gfed eBBB|cBBB EGBe|EGBe gedB|AGFG E3 :|
f|g2 e2 d2 e2|BBAG F3 f|g2 e2 d2 e2|EGBe g3 f|
g2 e2 d2 e2|a2 ab agef|g2 ga gedB|1AGFG E3:|2AGFG E4:|
